X: 10131
M: C
L: 1/8
K: C
V: 1 staves=3
c2c>c c2G>G | d2d>d d2G>G | edef g2fe | d2d>d d2 G>G |\
c2c>c c2G>G | d2d>d d2G>G | egfd c2B2 | c2c>c c2 :|
|: z2 |\
c2c>c c2G>G | d2d>d d2G>G | egfd c2B2 | c2c>c c2 :|
V: 2
E2E>E E2G>G | G2G>G G2G2 | cBcd e2dc | B2B>B B2 G2 |\
E2E>E E2c2 | B2B>B B2G2 | c2AF E2D2 | E2E>E E2 :|
|: z2 |\
E2E>E E2G>G | B2B>B B2G>G | c2AF E2D2 | E2E>E E2 :|
V: 3 clef=bass middle=d
g2 |\
c2c>c c2z2 | G2G>G G2z2 | c2B2 c2c2 | G2G>G G2z2 |\
c2c>c c2z2 | G2G>G G2z2 | c2f2 g2G2 | c2c>c c2 :|
|: z2 |\
g2g>g g2g>g | g2g>g g2z2 | c2c>B A2A>A | G2G>G G2z2 |\
c2c>c c2z2 | G2G>G G2z2 | c2f2 g2G2 | c2c>c c2 :|


